X: 116
T: Mr. Isaac's Maggot
M:3/2
L:1/8
Q:160
S:Playford
O:Manuscript
A:English
K:C
|:\
g4 e4 d4 | cde2 d2c2 d2G2 |\
G2 c4 B2 A4 | A2 d4 A2 B2G2 |\
g4 e4 d4 | cde2 d2c2 d2G2 |\
G2 c4 B2 A2fg | d2c2 d2B2 c4 :|
|:\
E2 G4 A2 G4 | E2 G4 AB c2G2 |\
E2 G4 A2 G4 | E2 G4 AB c2G2 |\
g3f/g/ a3g/f/ g3f/g/ | agfe fedc d2G2 |
g3f/g/ a3g/f/ g3f/g/ | agfe defg d2G2 |\
g4 f3e/f/ g4 | cde2 d2c2 d2G2 |\
e4 f3e/f/ g4 | G2c2 cde2 d2c2 :|
